Newaita-dark/mimetypes/16/text-xml.svg

<?xml version="1.0" encoding="UTF-8"?>
<svg xmlns="http://www.w3.org/2000/svg" xmlns:xlink="http://www.w3.org/1999/xlink" width="16px" height="16px" viewBox="0 0 16 16" version="1.1">
<defs>
<linearGradient id="linear0" gradientUnits="userSpaceOnUse" x1="254" y1="233.5" x2="254" y2="254.666672" gradientTransform="matrix(0.031253,0,0,0.031253,0.33076,6.719393)">
<stop offset="0" style="stop-color:rgb(0%,0%,0%);stop-opacity:0.27451;"/>
<stop offset="1" style="stop-color:rgb(0%,0%,0%);stop-opacity:0;"/>
</linearGradient>
<radialGradient id="radial0" gradientUnits="userSpaceOnUse" cx="450.908936" cy="189.579361" fx="450.908936" fy="189.579361" r="21.166656" gradientTransform="matrix(0.0000000870852,-0.0390662,-0.0703192,-0.0000000507693,24.742285,31.797666)">
<stop offset="0" style="stop-color:rgb(0%,0%,0%);stop-opacity:0.313726;"/>
<stop offset="0.222222" style="stop-color:rgb(0%,0%,0%);stop-opacity:0.27451;"/>
<stop offset="1" style="stop-color:rgb(0%,0%,0%);stop-opacity:0;"/>
</radialGradient>
<radialGradient id="radial1" gradientUnits="userSpaceOnUse" cx="450.908936" cy="189.579361" fx="450.908936" fy="189.579361" r="21.166656" gradientTransform="matrix(-0.0000000870852,0.0390662,0.0703192,0.0000000507693,-9.196524,-3.763739)">
<stop offset="0" style="stop-color:rgb(0%,0%,0%);stop-opacity:0.313726;"/>
<stop offset="0.222222" style="stop-color:rgb(0%,0%,0%);stop-opacity:0.27451;"/>
<stop offset="1" style="stop-color:rgb(0%,0%,0%);stop-opacity:0;"/>
</radialGradient>
<radialGradient id="radial2" gradientUnits="userSpaceOnUse" cx="450.908936" cy="189.579361" fx="450.908936" fy="189.579361" r="21.166656" gradientTransform="matrix(-0.0000000870852,-0.0390662,0.0703192,-0.0000000507693,-9.196524,31.797666)">
<stop offset="0" style="stop-color:rgb(0%,0%,0%);stop-opacity:0.313726;"/>
<stop offset="0.222222" style="stop-color:rgb(0%,0%,0%);stop-opacity:0.27451;"/>
<stop offset="1" style="stop-color:rgb(0%,0%,0%);stop-opacity:0;"/>
</radialGradient>
<radialGradient id="radial3" gradientUnits="userSpaceOnUse" cx="450.908936" cy="189.579361" fx="450.908936" fy="189.579361" r="21.166656" gradientTransform="matrix(0.0000000870852,0.0390662,-0.0703192,0.0000000507693,24.742284,-3.76374)">
<stop offset="0" style="stop-color:rgb(0%,0%,0%);stop-opacity:0.313726;"/>
<stop offset="0.222222" style="stop-color:rgb(0%,0%,0%);stop-opacity:0.27451;"/>
<stop offset="1" style="stop-color:rgb(0%,0%,0%);stop-opacity:0;"/>
</radialGradient>
<linearGradient id="linear1" gradientUnits="userSpaceOnUse" x1="940" y1="1695.118164" x2="940" y2="175.118118" gradientTransform="matrix(0.00826902,0,0,0.00826902,0,0)">
<stop offset="0" style="stop-color:rgb(80.784315%,57.647061%,84.705883%);stop-opacity:1;"/>
<stop offset="1" style="stop-color:rgb(88.235295%,74.509805%,90.588236%);stop-opacity:1;"/>
</linearGradient>
<linearGradient id="linear2" gradientUnits="userSpaceOnUse" x1="249.189423" y1="233.5" x2="249.189423" y2="254.666687" gradientTransform="matrix(0.0149471,0,0,0.0546927,7.521212,-8.180455)">
<stop offset="0" style="stop-color:rgb(0%,0%,0%);stop-opacity:0.27451;"/>
<stop offset="1" style="stop-color:rgb(0%,0%,0%);stop-opacity:0;"/>
</linearGradient>
<linearGradient id="linear3" gradientUnits="userSpaceOnUse" x1="338.666656" y1="233.5" x2="338.666656" y2="-168.666672" gradientTransform="matrix(0.031253,0,0,0.031253,0,6.719392)">
<stop offset="0" style="stop-color:rgb(67.058825%,27.843139%,73.725492%);stop-opacity:1;"/>
<stop offset="1" style="stop-color:rgb(72.941178%,40.784314%,78.431374%);stop-opacity:1;"/>
</linearGradient>
<filter id="alpha" filterUnits="objectBoundingBox" x="0%" y="0%" width="100%" height="100%">
  <feColorMatrix type="matrix" in="SourceGraphic" values="0 0 0 0 1 0 0 0 0 1 0 0 0 0 1 0 0 0 1 0"/>
</filter>
<mask id="mask0">
  <g filter="url(#alpha)">
<rect x="0" y="0" width="16" height="16" style="fill:rgb(0%,0%,0%);fill-opacity:0.99;stroke:none;"/>
  </g>
</mask>
<linearGradient id="linear4" gradientUnits="userSpaceOnUse" x1="-99.422264" y1="346.192566" x2="248.864288" y2="145.109238" gradientTransform="matrix(1,0,0,1,-34.795349,14.172065)">
<stop offset="0" style="stop-color:rgb(67.058825%,27.843139%,73.725492%);stop-opacity:1;"/>
<stop offset="1" style="stop-color:rgb(72.941178%,40.784314%,78.431374%);stop-opacity:1;"/>
</linearGradient>
<clipPath id="clip1">
  <rect x="0" y="0" width="16" height="16"/>
</clipPath>
<g id="surface5" clip-path="url(#clip1)">
<path style="fill-rule:nonzero;fill:url(#linear4);stroke-width:3;stroke-linecap:round;stroke-linejoin:round;stroke:rgb(12.941177%,12.941177%,12.941177%);stroke-opacity:1;stroke-miterlimit:4;" d="M -45.954057 240.828747 L 91.600629 240.849272 C 94.571497 240.829614 96.88501 243.185845 96.872319 246.035983 L 96.868919 256.647461 C 96.888577 259.618329 94.532346 261.931842 91.682208 261.919151 L -45.993208 261.930976 C -48.843346 261.918285 -51.277588 259.594403 -51.297247 256.623536 L -51.261497 246.132786 C -51.281156 243.161919 -48.804196 240.816057 -45.954057 240.828747 Z M -45.954057 240.828747 " transform="matrix(0.00808887,-0.0301881,0.0301881,0.00808887,0,6.719392)"/>
</g>
<linearGradient id="linear5" gradientUnits="userSpaceOnUse" x1="243.416672" y1="233.5" x2="243.416672" y2="-168.666672" >
<stop offset="0" style="stop-color:rgb(67.058825%,27.843139%,73.725492%);stop-opacity:1;"/>
<stop offset="1" style="stop-color:rgb(72.941178%,40.784314%,78.431374%);stop-opacity:1;"/>
</linearGradient>
<linearGradient id="linear6" gradientUnits="userSpaceOnUse" x1="254" y1="233.5" x2="248.708344" y2="-168.666672" >
<stop offset="0" style="stop-color:rgb(67.058825%,27.843139%,73.725492%);stop-opacity:1;"/>
<stop offset="1" style="stop-color:rgb(72.941178%,40.784314%,78.431374%);stop-opacity:1;"/>
</linearGradient>
</defs>
<g id="surface1">
<path style=" stroke:none;fill-rule:nonzero;fill:url(#linear0);" d="M 3.96875 14.015625 L 11.578125 14.015625 L 11.578125 14.679688 L 3.96875 14.679688 Z M 3.96875 14.015625 "/>
<path style=" stroke:none;fill-rule:nonzero;fill:url(#radial0);" d="M 11.578125 14.015625 L 12.898438 14.015625 L 12.898438 13.355469 L 11.578125 13.355469 Z M 11.578125 14.015625 "/>
<path style=" stroke:none;fill-rule:nonzero;fill:url(#radial1);" d="M 3.96875 14.015625 L 2.644531 14.015625 L 2.644531 14.679688 L 3.96875 14.679688 Z M 3.96875 14.015625 "/>
<path style=" stroke:none;fill-rule:nonzero;fill:url(#radial2);" d="M 3.96875 14.015625 L 2.644531 14.015625 L 2.644531 13.355469 L 3.96875 13.355469 Z M 3.96875 14.015625 "/>
<path style=" stroke:none;fill-rule:nonzero;fill:url(#radial3);" d="M 11.578125 14.015625 L 12.898438 14.015625 L 12.898438 14.679688 L 11.578125 14.679688 Z M 11.578125 14.015625 "/>
<path style=" stroke:none;fill-rule:nonzero;fill:url(#linear1);" d="M 9.269531 1.449219 L 3.308594 1.449219 C 2.941406 1.449219 2.644531 1.742188 2.644531 2.109375 L 2.644531 13.355469 C 2.644531 13.722656 2.941406 14.015625 3.308594 14.015625 L 12.238281 14.015625 C 12.605469 14.015625 12.898438 13.722656 12.898438 13.355469 L 12.898438 5.078125 Z M 9.269531 1.449219 "/>
<path style=" stroke:none;fill-rule:nonzero;fill:url(#linear2);" d="M 9.261719 4.589844 L 12.402344 4.589844 L 12.898438 5.085938 L 12.898438 5.746094 L 9.261719 5.746094 Z M 9.261719 4.589844 "/>
<path style=" stroke:none;fill-rule:nonzero;fill:rgb(0%,0%,0%);fill-opacity:0.235294;" d="M 2.644531 13.097656 L 2.644531 13.355469 C 2.644531 13.722656 2.941406 14.015625 3.308594 14.015625 L 12.238281 14.015625 C 12.605469 14.015625 12.898438 13.722656 12.898438 13.355469 L 12.898438 13.097656 C 12.898438 13.464844 12.605469 13.761719 12.238281 13.761719 L 3.308594 13.761719 C 2.941406 13.761719 2.644531 13.464844 2.644531 13.097656 Z M 2.644531 13.097656 "/>
<path style=" stroke:none;fill-rule:nonzero;fill:rgb(100%,100%,100%);fill-opacity:0.392157;" d="M 3.308594 1.449219 C 2.941406 1.449219 2.644531 1.742188 2.644531 2.109375 L 2.644531 2.359375 C 2.644531 1.992188 2.941406 1.695312 3.308594 1.695312 L 9.269531 1.695312 L 12.898438 5.324219 L 12.898438 5.078125 L 9.269531 1.449219 Z M 3.308594 1.449219 "/>
<path style=" stroke:none;fill-rule:nonzero;fill:url(#linear3);" d="M 12.898438 5.078125 L 9.269531 1.449219 L 9.269531 4.414062 C 9.269531 4.78125 9.566406 5.078125 9.933594 5.078125 Z M 12.898438 5.078125 "/>
<path style=" stroke:none;fill-rule:nonzero;fill:rgb(0%,0%,0%);fill-opacity:0.235294;" d="M 9.269531 4.257812 L 9.269531 4.414062 C 9.269531 4.78125 9.566406 5.078125 9.933594 5.078125 L 12.898438 5.078125 L 12.742188 4.921875 L 9.933594 4.921875 C 9.566406 4.921875 9.269531 4.625 9.269531 4.257812 Z M 9.269531 4.257812 "/>
<path style=" stroke:none;fill-rule:nonzero;fill:rgb(100%,100%,100%);fill-opacity:0.392157;" d="M 9.269531 1.449219 L 9.269531 1.695312 L 12.652344 5.078125 L 12.898438 5.078125 Z M 9.269531 1.449219 "/>
<path style=" stroke:none;fill-rule:nonzero;fill:rgb(12.941177%,12.941177%,12.941177%);fill-opacity:1;" d="M 9.269531 1.402344 C 9.246094 1.402344 9.222656 1.421875 9.222656 1.449219 L 9.222656 4.414062 C 9.222656 4.808594 9.539062 5.125 9.933594 5.125 L 12.898438 5.125 C 12.917969 5.125 12.9375 5.113281 12.941406 5.09375 C 12.949219 5.078125 12.945312 5.058594 12.933594 5.042969 L 9.304688 1.414062 C 9.296875 1.40625 9.28125 1.402344 9.269531 1.402344 Z M 9.316406 1.5625 L 12.785156 5.03125 L 9.933594 5.03125 C 9.589844 5.03125 9.316406 4.757812 9.316406 4.414062 Z M 9.316406 1.5625 "/>
<path style=" stroke:none;fill-rule:nonzero;fill:rgb(12.941177%,12.941177%,12.941177%);fill-opacity:1;" d="M 3.308594 1.402344 C 2.914062 1.402344 2.597656 1.71875 2.597656 2.109375 L 2.597656 13.355469 C 2.597656 13.746094 2.914062 14.0625 3.308594 14.0625 L 12.238281 14.0625 C 12.628906 14.0625 12.945312 13.746094 12.945312 13.355469 L 12.945312 5.078125 C 12.945312 5.0625 12.941406 5.050781 12.933594 5.042969 L 9.304688 1.414062 C 9.296875 1.40625 9.285156 1.402344 9.269531 1.402344 Z M 3.308594 1.496094 L 9.25 1.496094 L 12.851562 5.097656 L 12.851562 13.355469 C 12.851562 13.695312 12.578125 13.96875 12.238281 13.96875 L 3.308594 13.96875 C 2.964844 13.96875 2.691406 13.695312 2.691406 13.355469 L 2.691406 2.109375 C 2.691406 1.769531 2.964844 1.496094 3.308594 1.496094 Z M 3.308594 1.496094 "/>
<use xlink:href="#surface5" mask="url(#mask0)"/>
<path style="fill-rule:nonzero;fill:url(#linear5);stroke-width:3;stroke-linecap:round;stroke-linejoin:round;stroke:rgb(12.941177%,12.941177%,12.941177%);stroke-opacity:1;stroke-miterlimit:4;" d="M 196.481237 9.353575 C 194.35644 7.228778 190.981762 7.228778 188.981953 9.353575 L 166.484102 31.726439 L 158.984818 39.225723 C 156.985009 41.225532 156.985009 44.475221 158.85983 46.600018 C 158.85983 46.600018 158.984818 46.725007 158.984818 46.725007 L 188.981953 76.722142 C 190.981762 78.721951 194.35644 78.721951 196.481237 76.722142 L 203.855533 69.222858 C 205.98033 67.098061 205.98033 63.723383 203.855533 61.723574 L 185.232311 42.975365 L 203.855533 24.352143 C 205.98033 22.227346 205.98033 18.852668 203.855533 16.852859 Z M 196.481237 9.353575 " transform="matrix(0.031253,0,0,0.031253,0,6.719392)"/>
<path style="fill-rule:nonzero;fill:url(#linear6);stroke-width:3;stroke-linecap:round;stroke-linejoin:round;stroke:rgb(12.941177%,12.941177%,12.941177%);stroke-opacity:1;stroke-miterlimit:4;" d="M 300.971259 9.353575 C 303.096056 7.228778 306.345745 7.228778 308.470543 9.353575 L 330.968394 31.726439 L 338.34269 39.225723 C 340.467487 41.225532 340.467487 44.475221 338.592666 46.600018 C 338.467678 46.600018 338.467678 46.725007 338.34269 46.725007 L 330.968394 54.22429 L 308.470543 76.722142 C 306.345745 78.721951 303.096056 78.721951 300.971259 76.722142 L 293.471975 69.222858 C 291.472166 67.098061 291.472166 63.723383 293.471975 61.723574 L 312.220184 42.975365 L 293.471975 24.352143 C 291.472166 22.227346 291.472166 18.852668 293.471975 16.852859 Z M 300.971259 9.353575 " transform="matrix(0.031253,0,0,0.031253,0,6.719392)"/>
</g>
</svg>

<svg xmlns="http://www.w3.org/2000/svg" xmlns:xlink="http://www.w3.org/1999/xlink" width="16pt" height="16pt" viewBox="0 0 16 16"><defs><linearGradient id="d" gradientUnits="userSpaceOnUse" x1="254" y1="233.5" x2="254" y2="254.667" gradientTransform="matrix(.03125 0 0 .03125 .33 6.72)"><stop offset="0" stop-opacity=".275"/><stop offset="1" stop-opacity="0"/></linearGradient><radialGradient id="e" gradientUnits="userSpaceOnUse" cx="450.909" cy="189.579" fx="450.909" fy="189.579" r="21.167" gradientTransform="matrix(0 -.03907 -.07032 0 24.742 31.798)"><stop offset="0" stop-opacity=".314"/><stop offset=".222" stop-opacity=".275"/><stop offset="1" stop-opacity="0"/></radialGradient><radialGradient id="f" gradientUnits="userSpaceOnUse" cx="450.909" cy="189.579" fx="450.909" fy="189.579" r="21.167" gradientTransform="matrix(0 .03907 .07032 0 -9.197 -3.764)"><stop offset="0" stop-opacity=".314"/><stop offset=".222" stop-opacity=".275"/><stop offset="1" stop-opacity="0"/></radialGradient><radialGradient id="g" gradientUnits="userSpaceOnUse" cx="450.909" cy="189.579" fx="450.909" fy="189.579" r="21.167" gradientTransform="matrix(0 -.03907 .07032 0 -9.197 31.798)"><stop offset="0" stop-opacity=".314"/><stop offset=".222" stop-opacity=".275"/><stop offset="1" stop-opacity="0"/></radialGradient><radialGradient id="h" gradientUnits="userSpaceOnUse" cx="450.909" cy="189.579" fx="450.909" fy="189.579" r="21.167" gradientTransform="matrix(0 .03907 -.07032 0 24.742 -3.764)"><stop offset="0" stop-opacity=".314"/><stop offset=".222" stop-opacity=".275"/><stop offset="1" stop-opacity="0"/></radialGradient><linearGradient id="i" gradientUnits="userSpaceOnUse" x1="940" y1="1695.118" x2="940" y2="175.118" gradientTransform="rotate(.882) scale(.00827)"><stop offset="0" stop-color="#ce93d8"/><stop offset="1" stop-color="#e1bee7"/></linearGradient><linearGradient id="j" gradientUnits="userSpaceOnUse" x1="249.189" y1="233.5" x2="249.189" y2="254.667" gradientTransform="matrix(.01495 0 0 .0547 7.521 -8.18)"><stop offset="0" stop-opacity=".275"/><stop offset="1" stop-opacity="0"/></linearGradient><linearGradient id="k" gradientUnits="userSpaceOnUse" x1="338.667" y1="233.5" x2="338.667" y2="-168.667" gradientTransform="matrix(.03125 0 0 .03125 0 6.72)"><stop offset="0" stop-color="#ab47bc"/><stop offset="1" stop-color="#ba68c8"/></linearGradient><filter id="a" filterUnits="objectBoundingBox" x="0%" y="0%" width="100%" height="100%"><feColorMatrix in="SourceGraphic" values="0 0 0 0 1 0 0 0 0 1 0 0 0 0 1 0 0 0 1 0"/></filter><mask id="m"><path fill-opacity=".988" d="M0 0h16v16H0z" filter="url(#a)"/></mask><linearGradient id="c" gradientUnits="userSpaceOnUse" x1="-99.422" y1="346.193" x2="248.864" y2="145.109" gradientTransform="translate(-34.795 14.172)"><stop offset="0" stop-color="#ab47bc"/><stop offset="1" stop-color="#ba68c8"/></linearGradient><clipPath id="b"><path d="M0 0h16v16H0z"/></clipPath><g id="l" clip-path="url(#b)"><path d="M-45.954 240.829l137.555.02c2.97-.02 5.284 2.337 5.271 5.187l-.003 10.611c.02 2.971-2.337 5.285-5.187 5.272l-137.675.012c-2.85-.013-5.285-2.337-5.304-5.307l.036-10.491c-.02-2.971 2.457-5.317 5.307-5.304zm0 0" transform="matrix(.00809 -.03019 .03019 .00809 0 6.72)" fill="url(#c)" stroke-width="3" stroke-linecap="round" stroke-linejoin="round" stroke="#212121"/></g><linearGradient id="n" gradientUnits="userSpaceOnUse" x1="243.417" y1="233.5" x2="243.417" y2="-168.667"><stop offset="0" stop-color="#ab47bc"/><stop offset="1" stop-color="#ba68c8"/></linearGradient><linearGradient id="o" gradientUnits="userSpaceOnUse" x1="254" y1="233.5" x2="248.708" y2="-168.667"><stop offset="0" stop-color="#ab47bc"/><stop offset="1" stop-color="#ba68c8"/></linearGradient></defs><path d="M3.969 14.016h7.61v.664h-7.61zm0 0" fill="url(#d)"/><path d="M11.578 14.016h1.32v-.66h-1.32zm0 0" fill="url(#e)"/><path d="M3.969 14.016H2.645v.664h1.324zm0 0" fill="url(#f)"/><path d="M3.969 14.016H2.645v-.66h1.324zm0 0" fill="url(#g)"/><path d="M11.578 14.016h1.32v.664h-1.32zm0 0" fill="url(#h)"/><path d="M9.27 1.45H3.309a.66.66 0 0 0-.664.66v11.245c0 .368.296.66.664.66h8.93c.366 0 .66-.292.66-.66V5.078zm0 0" fill="url(#i)"/><path d="M9.262 4.59h3.14l.496.496v.66H9.262zm0 0" fill="url(#j)"/><path d="M2.645 13.098v.257c0 .368.296.66.664.66h8.93c.366 0 .66-.292.66-.66v-.257a.66.66 0 0 1-.66.664h-8.93a.664.664 0 0 1-.664-.664zm0 0" fill-opacity=".235"/><path d="M3.309 1.45a.66.66 0 0 0-.664.66v.25c0-.368.296-.665.664-.665h5.96l3.63 3.63v-.247L9.268 1.45zm0 0" fill="#fff" fill-opacity=".392"/><path d="M12.898 5.078L9.27 1.45v2.965c0 .367.296.664.664.664zm0 0" fill="url(#k)"/><path d="M9.27 4.258v.156c0 .367.296.664.664.664h2.964l-.156-.156H9.934a.664.664 0 0 1-.664-.664zm0 0" fill-opacity=".235"/><path d="M9.27 1.45v.245l3.382 3.383h.246zm0 0" fill="#fff" fill-opacity=".392"/><path d="M9.27 1.402a.047.047 0 0 0-.047.047v2.965c0 .395.316.711.71.711h2.965c.02 0 .04-.012.043-.031.008-.016.004-.035-.007-.051l-3.63-3.629c-.007-.008-.023-.012-.034-.012zm.046.16l3.47 3.47H9.933a.614.614 0 0 1-.618-.618zm0 0" fill="#212121"/><path d="M3.309 1.402a.708.708 0 0 0-.711.707v11.246c0 .391.316.707.71.707h8.93c.39 0 .707-.316.707-.707V5.078c0-.016-.004-.027-.011-.035l-3.63-3.629c-.007-.008-.019-.012-.034-.012zm0 .094H9.25l3.602 3.602v8.257c0 .34-.274.614-.614.614h-8.93a.613.613 0 0 1-.617-.614V2.11c0-.34.274-.613.618-.613zm0 0" fill="#212121"/><use xlink:href="#l" mask="url(#m)"/><path d="M196.481 9.354c-2.125-2.125-5.5-2.125-7.499 0l-22.498 22.372-7.5 7.5c-1.999 2-1.999 5.25-.124 7.374l.125.125 29.997 29.997c2 2 5.374 2 7.5 0l7.374-7.5c2.124-2.124 2.124-5.499 0-7.498l-18.624-18.749 18.624-18.623c2.124-2.125 2.124-5.5 0-7.5zm0 0" transform="matrix(.03125 0 0 .03125 0 6.72)" fill="url(#n)" stroke-width="3" stroke-linecap="round" stroke-linejoin="round" stroke="#212121"/><path d="M300.971 9.354c2.125-2.125 5.375-2.125 7.5 0l22.497 22.372 7.375 7.5c2.124 2 2.124 5.25.25 7.374-.125 0-.125.125-.25.125l-7.375 7.5-22.497 22.497c-2.125 2-5.375 2-7.5 0l-7.499-7.5c-2-2.124-2-5.499 0-7.498l18.748-18.749-18.748-18.623c-2-2.125-2-5.5 0-7.5zm0 0" transform="matrix(.03125 0 0 .03125 0 6.72)" fill="url(#o)" stroke-width="3" stroke-linecap="round" stroke-linejoin="round" stroke="#212121"/></svg>
